X:139
T:Glorious 12th of April. THO5.139, The
T:Rodney Forever. THO5.139
M:2/4
L:1/8
B:Thompson's Complete Collection of 200 Favourite Dances Vol.5
F:https://www.libraryofdance.org/manuals/1780c-Thompson-Compleat-5.pdf
Z:vmp. Peter Dunk 2024
Q:1/4=120
K:Bb
Bdce|AcBF|Bdce|fedc|\\
Bdce|AcBg|fedc|B2 B,2:|
|:bfgd|ecdB|bfgd|ed c2|\\
bfgd|ecdB|ecAc|B2 B,2:|
W:
W:The 1st Couple set and change sides ./.
W:The same back again ./:
W:Hands across :/.
W:Back again :/:
W:Cross over 2 Couples again & cast off./. ./:
W:Lead out sides :/. :/:

